Numix-Circle/48x48/apps/nutty.svg

<svg xmlns="http://www.w3.org/2000/svg" viewBox="0 0 48 48">
 <defs>
  <linearGradient id="linearGradient3764" x1="1" x2="47" gradientUnits="userSpaceOnUse" gradientTransform="matrix(0,-1,1,0,-1.5e-6,47.999998)">
   <stop style="stop-color:#0ec64f;stop-opacity:1"/>
   <stop offset="1" style="stop-color:#0fd956;stop-opacity:1"/>
  </linearGradient>
 </defs>
 <g>
  <path d="m 36.31 5 c 5.859 4.062 9.688 10.831 9.688 18.5 c 0 12.426 -10.07 22.5 -22.5 22.5 c -7.669 0 -14.438 -3.828 -18.5 -9.688 c 1.037 1.822 2.306 3.499 3.781 4.969 c 4.085 3.712 9.514 5.969 15.469 5.969 c 12.703 0 23 -10.298 23 -23 c 0 -5.954 -2.256 -11.384 -5.969 -15.469 c -1.469 -1.475 -3.147 -2.744 -4.969 -3.781 z m 4.969 3.781 c 3.854 4.113 6.219 9.637 6.219 15.719 c 0 12.703 -10.297 23 -23 23 c -6.081 0 -11.606 -2.364 -15.719 -6.219 c 4.16 4.144 9.883 6.719 16.219 6.719 c 12.703 0 23 -10.298 23 -23 c 0 -6.335 -2.575 -12.06 -6.719 -16.219 z" style="opacity:0.05"/>
  <path d="m 41.28 8.781 c 3.712 4.085 5.969 9.514 5.969 15.469 c 0 12.703 -10.297 23 -23 23 c -5.954 0 -11.384 -2.256 -15.469 -5.969 c 4.113 3.854 9.637 6.219 15.719 6.219 c 12.703 0 23 -10.298 23 -23 c 0 -6.081 -2.364 -11.606 -6.219 -15.719 z" style="opacity:0.1"/>
  <path d="m 31.25 2.375 c 8.615 3.154 14.75 11.417 14.75 21.13 c 0 12.426 -10.07 22.5 -22.5 22.5 c -9.708 0 -17.971 -6.135 -21.12 -14.75 a 23 23 0 0 0 44.875 -7 a 23 23 0 0 0 -16 -21.875 z" style="opacity:0.2"/>
 </g>
 <g>
  <path d="m 24 1 c 12.703 0 23 10.297 23 23 c 0 12.703 -10.297 23 -23 23 -12.703 0 -23 -10.297 -23 -23 0 -12.703 10.297 -23 23 -23 z" style="fill:url(#linearGradient3764);fill-opacity:1"/>
 </g>
 <g>
  <g>
   <g transform="translate(1,1)">
    <g style="opacity:0.1">
     <!-- color: #eea53a -->
    </g>
   </g>
  </g>
 </g>
 <g>
  <g>
   <!-- color: #eea53a -->
  </g>
 </g>
 <g>
  <path d="m 40.03 7.531 c 3.712 4.084 5.969 9.514 5.969 15.469 0 12.703 -10.297 23 -23 23 c -5.954 0 -11.384 -2.256 -15.469 -5.969 4.178 4.291 10.01 6.969 16.469 6.969 c 12.703 0 23 -10.298 23 -23 0 -6.462 -2.677 -12.291 -6.969 -16.469 z" style="opacity:0.1"/>
 </g>
 <path d="m 25 10 c -1.657 0 -3 1.343 -3 3 0.002 1.27 0.803 2.401 2 2.824 l 0 3.266 c -1.748 0.297 -3.275 1.351 -4.172 2.881 l -3.232 -1.049 c -0.034 -1.269 -0.862 -2.379 -2.069 -2.772 -1.574 -0.513 -3.266 0.346 -3.781 1.92 -0.514 1.577 0.35 3.273 1.928 3.784 1.209 0.391 2.533 -0.022 3.305 -1.03 l 3.141 1.02 c -0.077 0.381 -0.118 0.768 -0.12 1.156 c 0.001 1.644 0.677 3.216 1.869 4.348 l -2.02 2.782 c -1.218 -0.362 -2.532 0.083 -3.28 1.11 -0.972 1.34 -0.675 3.214 0.664 4.188 1.341 0.975 3.218 0.678 4.192 -0.664 0.747 -1.029 0.764 -2.417 0.043 -3.464 l 2.062 -2.839 c 0.775 0.353 1.616 0.536 2.467 0.539 0.852 -0.002 1.693 -0.185 2.469 -0.537 l 2.06 2.837 c -0.721 1.047 -0.704 2.435 0.043 3.464 0.974 1.342 2.851 1.639 4.192 0.664 1.338 -0.974 1.635 -2.848 0.662 -4.188 -0.747 -1.026 -2.059 -1.47 -3.276 -1.11 l -2.02 -2.784 c 1.192 -1.131 1.868 -2.702 1.87 -4.346 c 0 -0.389 -0.038 -0.777 -0.113 -1.158 l 3.133 -1.018 c 0.773 1.01 2.1 1.423 3.31 1.03 1.575 -0.515 2.435 -2.209 1.92 -3.784 -0.515 -1.572 -2.204 -2.43 -3.777 -1.92 -1.207 0.393 -2.035 1.503 -2.069 2.772 l -3.234 1.049 c -0.896 -1.529 -2.423 -2.584 -4.17 -2.881 l 0 -3.264 c 1.198 -0.423 1.999 -1.556 2 -2.826 0 -1.657 -1.343 -3 -3 -3 z" style="fill:#000;opacity:0.1;fill-opacity:1;stroke:none"/>
 <g>
  <path d="m 24 18 c -3.314 0 -6 2.686 -6 6 0 3.314 2.686 6 6 6 3.314 0 6 -2.686 6 -6 0 -3.314 -2.686 -6 -6 -6 z" style="fill:#42535e;opacity:1;fill-opacity:1;stroke:none"/>
  <rect y="14" x="23" height="5" width="2" style="fill:#42535e;opacity:1;fill-opacity:1;stroke:none"/>
  <circle r="3" cy="12" cx="24" style="fill:#42535e;opacity:1;fill-opacity:1;stroke:none"/>
  <rect transform="matrix(0.30901699,0.95105652,-0.95105652,0.30901699,0,0)" width="2" height="5" x="28.96" y="-25.487" style="fill:#42535e;opacity:1;fill-opacity:1;stroke:none"/>
  <circle transform="matrix(0.30901699,0.95105652,-0.95105652,0.30901699,0,0)" cx="29.96" cy="-27.487" r="3" style="fill:#42535e;opacity:1;fill-opacity:1;stroke:none"/>
  <rect y="-43.728" x="-6.094" height="5" width="2" transform="matrix(-0.809017,0.58778525,-0.58778525,-0.809017,0,0)" style="fill:#42535e;opacity:1;fill-opacity:1;stroke:none"/>
  <circle r="3" cy="-45.728" cx="-5.094" transform="matrix(-0.809017,0.58778525,-0.58778525,-0.809017,0,0)" style="fill:#42535e;opacity:1;fill-opacity:1;stroke:none"/>
  <rect y="20.16" x="14.13" height="5" width="2" transform="matrix(-0.30901691,0.95105654,0.9510565,0.30901705,0,0)" style="fill:#42535e;opacity:1;fill-opacity:1;stroke:none"/>
  <ellipse ry="3" rx="3" cy="18.16" cx="15.13" transform="matrix(-0.30901691,0.95105654,0.9510565,0.30901705,0,0)" style="fill:#42535e;opacity:1;fill-opacity:1;stroke:none"/>
  <rect transform="matrix(0.80901694,0.58778532,0.58778518,-0.80901705,0,0)" width="2" height="5" x="32.738" y="-15.514" style="fill:#42535e;opacity:1;fill-opacity:1;stroke:none"/>
  <ellipse ry="3" rx="3" transform="matrix(0.80901694,0.58778532,0.58778518,-0.80901705,0,0)" cx="33.738" cy="-17.514" style="fill:#42535e;opacity:1;fill-opacity:1;stroke:none"/>
 </g>
 <path d="m 24 20 c -0.554 0 -1 0.446 -1 1 c 0 0.554 0.446 1 1 1 c 0.554 0 1 -0.446 1 -1 c 0 -0.554 -0.446 -1 -1 -1 z m 0 3 c -0.554 0 -1 0.446 -1 1 l 0 3 c 0 0.554 0.446 1 1 1 c 0.554 0 1 -0.446 1 -1 l 0 -3 c 0 -0.554 -0.446 -1 -1 -1 z" style="fill:#f9f9f9;opacity:1;fill-opacity:1;stroke:none"/>
</svg>

<svg xmlns="http://www.w3.org/2000/svg" viewBox="0 0 48 48">
 <defs>
  <linearGradient id="linearGradient3764" x1="1" x2="47" gradientUnits="userSpaceOnUse" gradientTransform="matrix(0,-1,1,0,-1.5e-6,47.999998)">
   <stop style="stop-color:#0ec64f;stop-opacity:1"/>
   <stop offset="1" style="stop-color:#0fd956;stop-opacity:1"/>
  </linearGradient>
 </defs>
 <g>
  <path d="m 36.31 5 c 5.859 4.062 9.688 10.831 9.688 18.5 c 0 12.426 -10.07 22.5 -22.5 22.5 c -7.669 0 -14.438 -3.828 -18.5 -9.688 c 1.037 1.822 2.306 3.499 3.781 4.969 c 4.085 3.712 9.514 5.969 15.469 5.969 c 12.703 0 23 -10.298 23 -23 c 0 -5.954 -2.256 -11.384 -5.969 -15.469 c -1.469 -1.475 -3.147 -2.744 -4.969 -3.781 z m 4.969 3.781 c 3.854 4.113 6.219 9.637 6.219 15.719 c 0 12.703 -10.297 23 -23 23 c -6.081 0 -11.606 -2.364 -15.719 -6.219 c 4.16 4.144 9.883 6.719 16.219 6.719 c 12.703 0 23 -10.298 23 -23 c 0 -6.335 -2.575 -12.06 -6.719 -16.219 z" style="opacity:0.05"/>
  <path d="m 41.28 8.781 c 3.712 4.085 5.969 9.514 5.969 15.469 c 0 12.703 -10.297 23 -23 23 c -5.954 0 -11.384 -2.256 -15.469 -5.969 c 4.113 3.854 9.637 6.219 15.719 6.219 c 12.703 0 23 -10.298 23 -23 c 0 -6.081 -2.364 -11.606 -6.219 -15.719 z" style="opacity:0.1"/>
  <path d="m 31.25 2.375 c 8.615 3.154 14.75 11.417 14.75 21.13 c 0 12.426 -10.07 22.5 -22.5 22.5 c -9.708 0 -17.971 -6.135 -21.12 -14.75 a 23 23 0 0 0 44.875 -7 a 23 23 0 0 0 -16 -21.875 z" style="opacity:0.2"/>
 </g>
 <g>
  <path d="m 24 1 c 12.703 0 23 10.297 23 23 c 0 12.703 -10.297 23 -23 23 -12.703 0 -23 -10.297 -23 -23 0 -12.703 10.297 -23 23 -23 z" style="fill:url(#linearGradient3764);fill-opacity:1"/>
 </g>
 <g>
  <g>
   <g transform="translate(1,1)">
    <g style="opacity:0.1">
     <!-- color: #eea53a -->
    </g>
   </g>
  </g>
 </g>
 <g>
  <g>
   <!-- color: #eea53a -->
  </g>
 </g>
 <g>
  <path d="m 40.03 7.531 c 3.712 4.084 5.969 9.514 5.969 15.469 0 12.703 -10.297 23 -23 23 c -5.954 0 -11.384 -2.256 -15.469 -5.969 4.178 4.291 10.01 6.969 16.469 6.969 c 12.703 0 23 -10.298 23 -23 0 -6.462 -2.677 -12.291 -6.969 -16.469 z" style="opacity:0.1"/>
 </g>
 <path d="M 25 10 A 3 3 0 0 0 22 13 A 3 3 0 0 0 24 15.824 L 24 19.09 A 6 6 0 0 0 19.828 21.971 L 16.596 20.922 A 3 3 0 0 0 14.527 18.15 A 3 3 0 0 0 10.746 20.07 A 3 3 0 0 0 12.674 23.854 A 3 3 0 0 0 15.979 22.824 L 19.12 23.844 A 6 6 0 0 0 19 25 A 6 6 0 0 0 20.869 29.348 L 18.852 32.13 A 3 3 0 0 0 15.572 33.24 A 3 3 0 0 0 16.236 37.428 A 3 3 0 0 0 20.428 36.764 A 3 3 0 0 0 20.471 33.3 L 22.533 30.461 A 6 6 0 0 0 25 31 A 6 6 0 0 0 27.469 30.463 L 29.529 33.3 A 3 3 0 0 0 29.572 36.764 A 3 3 0 0 0 33.764 37.428 A 3 3 0 0 0 34.426 33.24 A 3 3 0 0 0 31.15 32.13 L 29.13 29.346 A 6 6 0 0 0 31 25 A 6 6 0 0 0 30.887 23.842 L 34.02 22.824 A 3 3 0 0 0 37.33 23.854 A 3 3 0 0 0 39.25 20.07 A 3 3 0 0 0 35.473 18.15 A 3 3 0 0 0 33.404 20.922 L 30.17 21.971 A 6 6 0 0 0 26 19.09 L 26 15.826 A 3 3 0 0 0 28 13 A 3 3 0 0 0 25 10 z M 25 21 A 1 1 0 0 1 26 22 A 1 1 0 0 1 25 23 A 1 1 0 0 1 24 22 A 1 1 0 0 1 25 21 z M 25 24 C 25.554 24 26 24.446 26 25 L 26 28 C 26 28.554 25.554 29 25 29 C 24.446 29 24 28.554 24 28 L 24 25 C 24 24.446 24.446 24 25 24 z" style="fill:#000;opacity:0.1;fill-opacity:1;stroke:none"/>
 <g>
  <path d="m 24 18 a 6 6 0 0 0 -6 6 6 6 0 0 0 6 6 6 6 0 0 0 6 -6 6 6 0 0 0 -6 -6 z m 0 2 a 1 1 0 0 1 1 1 1 1 0 0 1 -1 1 1 1 0 0 1 -1 -1 1 1 0 0 1 1 -1 z m 0 3 c 0.554 0 1 0.446 1 1 l 0 3 c 0 0.554 -0.446 1 -1 1 -0.554 0 -1 -0.446 -1 -1 l 0 -3 c 0 -0.554 0.446 -1 1 -1 z" style="fill:#42535e;opacity:1;fill-opacity:1;stroke:none"/>
  <rect y="14" x="23" height="5" width="2" style="fill:#42535e;opacity:1;fill-opacity:1;stroke:none"/>
  <circle r="3" cy="12" cx="24" style="fill:#42535e;opacity:1;fill-opacity:1;stroke:none"/>
  <rect transform="matrix(0.30901699,0.95105652,-0.95105652,0.30901699,0,0)" width="2" height="5" x="28.96" y="-25.487" style="fill:#42535e;opacity:1;fill-opacity:1;stroke:none"/>
  <circle transform="matrix(0.30901699,0.95105652,-0.95105652,0.30901699,0,0)" cx="29.96" cy="-27.487" r="3" style="fill:#42535e;opacity:1;fill-opacity:1;stroke:none"/>
  <rect y="-43.728" x="-6.094" height="5" width="2" transform="matrix(-0.809017,0.58778525,-0.58778525,-0.809017,0,0)" style="fill:#42535e;opacity:1;fill-opacity:1;stroke:none"/>
  <circle r="3" cy="-45.728" cx="-5.094" transform="matrix(-0.809017,0.58778525,-0.58778525,-0.809017,0,0)" style="fill:#42535e;opacity:1;fill-opacity:1;stroke:none"/>
  <rect y="20.16" x="14.13" height="5" width="2" transform="matrix(-0.30901691,0.95105654,0.9510565,0.30901705,0,0)" style="fill:#42535e;opacity:1;fill-opacity:1;stroke:none"/>
  <ellipse ry="3" rx="3" cy="18.16" cx="15.13" transform="matrix(-0.30901691,0.95105654,0.9510565,0.30901705,0,0)" style="fill:#42535e;opacity:1;fill-opacity:1;stroke:none"/>
  <rect transform="matrix(0.80901694,0.58778532,0.58778518,-0.80901705,0,0)" width="2" height="5" x="32.738" y="-15.514" style="fill:#42535e;opacity:1;fill-opacity:1;stroke:none"/>
  <ellipse ry="3" rx="3" transform="matrix(0.80901694,0.58778532,0.58778518,-0.80901705,0,0)" cx="33.738" cy="-17.514" style="fill:#42535e;opacity:1;fill-opacity:1;stroke:none"/>
 </g>
</svg>
